X: 5
T: The Keel Row
R: strathspey
M: 4/4
L: 1/8
K: Gmaj
|: B2 G>B c2 A>c | B2 G>B A>F D2 |B2 G>B c2 A>c | B>GA>F G4 :|
|: BdBd e2 d>c | B2 A>G B>G D2 | BdBd e2 d>c | B2 A2 G4 :|


Tune 3637	Setting 16642

